svgs/light/fork.svg

<svg xmlns="http://www.w3.org/2000/svg" viewBox="0 0 512 512"><!--! Font Awesome Pro 6.0.0-alpha3 by @fontawesome - https://fontawesome.com License - https://fontawesome.com/license (Commercial License) --><path d="M504.1 126.1c-7.609-4.484-17.42-1.953-21.91 5.688L424.6 229.8c-17.19 26.56-45.02 43.73-76.17 47.08c-17 1.672-38.91-1.031-54.48-6.672l-9.766-3.531l-201.8 209.5C80.14 478.5 76.86 479.1 73.45 480c-3.188 0-6.328-1.297-8.609-3.594l-29.3-29.33C33.28 444.8 31.95 441.5 32 438.3c.0469-3.266 1.469-6.547 3.875-8.828l209.8-201.4L242.1 218.3C236.4 202.4 233.7 180.5 235.5 163.9c3.312-31.33 20.64-59.3 46.97-76.33l98.63-57.75c7.625-4.469 10.19-14.27 5.734-21.89c-4.484-7.656-14.3-10.19-21.89-5.734l-99.23 58.13C230.6 83.02 207.1 119.5 203.7 160.5c-1.891 17.97 .125 39.89 5.203 58.52l-195.1 187.3C5.188 414.5 .1719 426 0 437.9c-.1406 11.91 4.594 23.52 12.95 31.83l29.25 29.28C50.42 507.3 61.81 512 74.14 512c11.8-.2031 23.22-5.188 31.33-13.66l187.7-194.9c18.34 4.969 40.3 7.031 58.5 5.234c40.97-4.391 77.33-26.81 100.2-62.11l57.95-98.56C514.3 140.4 511.7 130.6 504.1 126.1zM308.7 155.3C311.8 158.4 315.9 160 320 160s8.188-1.562 11.31-4.688l96-96c6.25-6.25 6.25-16.38 0-22.62s-16.38-6.25-22.62 0l-96 96C302.4 138.9 302.4 149.1 308.7 155.3zM356.7 203.3C359.8 206.4 363.9 208 368 208s8.188-1.562 11.31-4.688l96-96c6.25-6.25 6.25-16.38 0-22.62s-16.38-6.25-22.62 0l-96 96C350.4 186.9 350.4 197.1 356.7 203.3z"/></svg>

<svg xmlns="http://www.w3.org/2000/svg" viewBox="0 0 512 512"><!-- Font Awesome Pro 6.0.0-alpha2 by @fontawesome - https://fontawesome.com License - https://fontawesome.com/license (Commercial License) --><path d="M504.112 126.125C496.503 121.641 486.691 124.172 482.206 131.812L424.612 229.797C407.425 256.359 379.597 273.531 348.441 276.875C331.441 278.547 309.534 275.844 293.956 270.203L284.191 266.672L82.378 476.187C80.144 478.516 76.862 479.953 73.456 480C70.269 480 67.128 478.703 64.847 476.406L35.55 447.078C33.284 444.828 31.956 441.547 32.003 438.344C32.05 435.078 33.472 431.797 35.878 429.516L245.659 228.094L242.128 218.328C236.394 202.422 233.722 180.547 235.472 163.891C238.784 132.562 256.112 104.594 282.441 87.562L381.066 29.812C388.691 25.344 391.253 15.547 386.8 7.922C382.316 0.266 372.503 -2.266 364.909 2.188L265.675 60.312C230.581 83.016 207.972 119.547 203.659 160.547C201.769 178.516 203.784 200.437 208.862 219.062L13.769 406.375C5.191 414.547 0.175 426.016 0.003 437.906C-0.138 449.812 4.597 461.422 12.956 469.734L42.206 499.016C50.425 507.266 61.816 512 74.144 512C85.941 511.797 97.362 506.812 105.472 498.344L293.191 303.469C311.534 308.437 333.487 310.5 351.691 308.703C392.659 304.312 429.019 281.891 451.847 246.594L509.8 148.031C514.269 140.422 511.737 130.609 504.112 126.125ZM308.691 155.312C311.816 158.438 315.909 160 320.003 160S328.191 158.438 331.316 155.312L427.316 59.312C433.566 53.062 433.566 42.937 427.316 36.688S410.941 30.438 404.691 36.688L308.691 132.688C302.441 138.938 302.441 149.062 308.691 155.312ZM356.691 203.312C359.816 206.438 363.909 208 368.003 208S376.191 206.438 379.316 203.312L475.316 107.312C481.566 101.062 481.566 90.937 475.316 84.688S458.941 78.438 452.691 84.688L356.691 180.688C350.441 186.938 350.441 197.062 356.691 203.312Z"/></svg>
